X: 1
T: Shottish (efter Andrea Hoag)
O: Denmark
R: shottish
M: 4/4
L: 1/8
K: G
   D \
| "G"G2Ac BGGD | G2Ac BGGB | d2gd B2dB | GABc "D7"d3 :|
|: z \
| "D7"A3B cBAG | FDEF "G"GBdB | "D7"A3B cBAG | FDEF "G"G3 :|
|: z \
| "Em"e2Bg e2Bg | egeg e2B2 | "B"fe^dc Bcde | "(Am)"fe^dc "B"B3 :|
|: c \
| "G"d2BB [d2d2][BB2]B | "D7"DGFA "G"GABc | "G"d2BB [d2d2][BB2]B | "D7"DGFA "G"G3 :|
|: z \
| "G"baba gfed | "C"eg"D7"fa "G"gfga | "G"baba gfed | "C"eg"D7"fa "G"g3 :|
